img/dost-mob-2.svg

<svg width="201" height="149" viewBox="0 0 201 149" fill="none" xmlns="http://www.w3.org/2000/svg">
<path fill-rule="evenodd" clip-rule="evenodd" d="M36.205 135.005L34.635 148.047L27.0327 135.005H20.0001C8.95438 135.005 7.62939e-05 126.051 7.62939e-05 115.005V20.0058C7.62939e-05 8.96008 8.95438 0.00576782 20.0001 0.00576782H180.697C191.743 0.00576782 200.697 8.96007 200.697 20.0058V115.005C200.697 126.051 191.743 135.005 180.697 135.005H36.205Z" fill="url(#paint0_linear)"/>
<path fill-rule="evenodd" clip-rule="evenodd" d="M36.205 135.005L34.635 148.047L27.0327 135.005H20.0001C8.95438 135.005 7.62939e-05 126.051 7.62939e-05 115.005V20.0058C7.62939e-05 8.96008 8.95438 0.00576782 20.0001 0.00576782H180.697C191.743 0.00576782 200.697 8.96007 200.697 20.0058V115.005C200.697 126.051 191.743 135.005 180.697 135.005H36.205Z" fill="url(#paint1_linear)"/>
<defs>
<linearGradient id="paint0_linear" x1="90.5024" y1="7.57862e-05" x2="132.486" y2="120.781" gradientUnits="userSpaceOnUse">
<stop stop-color="#FFB464"/>
<stop offset="1" stop-color="#F97928"/>
</linearGradient>
<linearGradient id="paint1_linear" x1="76" y1="1.33174e-05" x2="73" y2="128" gradientUnits="userSpaceOnUse">
<stop stop-color="#FEBA6F"/>
<stop offset="1" stop-color="#F98132"/>
</linearGradient>
</defs>
</svg>

<svg width="201" height="149" fill="none" xmlns="http://www.w3.org/2000/svg"><path fill-rule="evenodd" clip-rule="evenodd" d="M36.205 135.005l-1.57 13.042-7.602-13.042H20c-11.046 0-20-8.954-20-20v-95c0-11.045 8.954-20 20-20h160.697c11.046 0 20 8.955 20 20v95c0 11.046-8.954 20-20 20H36.205z" fill="url(#paint0_linear)"/><path fill-rule="evenodd" clip-rule="evenodd" d="M36.205 135.005l-1.57 13.042-7.602-13.042H20c-11.046 0-20-8.954-20-20v-95c0-11.045 8.954-20 20-20h160.697c11.046 0 20 8.955 20 20v95c0 11.046-8.954 20-20 20H36.205z" fill="url(#paint1_linear)"/><defs><linearGradient id="paint0_linear" x1="90.502" y1="0" x2="132.486" y2="120.781" gradientUnits="userSpaceOnUse"><stop stop-color="#FFB464"/><stop offset="1" stop-color="#F97928"/></linearGradient><linearGradient id="paint1_linear" x1="76" y1="0" x2="73" y2="128" gradientUnits="userSpaceOnUse"><stop stop-color="#FEBA6F"/><stop offset="1" stop-color="#F98132"/></linearGradient></defs></svg>
